icons/file_type_ovpn.svg

<svg xmlns="http://www.w3.org/2000/svg" xmlns:xlink="http://www.w3.org/1999/xlink" viewBox="0 0 48 48" version="1.1" width="32px" height="32px"><g id="surface1"><path style=" fill:#FF9100;" d="M 24 4 C 12.953125 4 4 12.953125 4 24 C 4 31.394531 8.023438 37.832031 13.988281 41.296875 L 18.492188 33.511719 C 15.210938 31.609375 13 28.066406 13 24 C 13 17.925781 17.925781 13 24 13 C 30.074219 13 35 17.925781 35 24 C 35 28.066406 32.789063 31.609375 29.507813 33.511719 L 34.011719 41.296875 C 39.976563 37.832031 44 31.394531 44 24 C 44 12.953125 35.046875 4 24 4 Z "/><path style=" fill:#1A237E;" d="M 30 24 C 30 20.6875 27.3125 18 24 18 C 20.6875 18 18 20.6875 18 24 C 18 26.554688 19.601563 28.734375 21.851563 29.597656 L 19.292969 43.417969 C 20.804688 43.785156 22.375 44 24 44 C 25.625 44 27.195313 43.785156 28.707031 43.421875 L 26.148438 29.597656 C 28.398438 28.734375 30 26.554688 30 24 Z"/></g></svg>

<svg xmlns="http://www.w3.org/2000/svg" width="32" height="32" viewBox="0 0 48 48"><path d="M24 4C12.953 4 4 12.953 4 24c0 7.395 4.023 13.832 9.988 17.297l4.504-7.785C15.211 31.609 13 28.066 13 24c0-6.074 4.926-11 11-11s11 4.926 11 11c0 4.066-2.21 7.61-5.492 9.512l4.504 7.785C39.977 37.832 44 31.395 44 24c0-11.047-8.953-20-20-20Z" style="fill:#ff9100"/><path d="M30 24c0-3.313-2.688-6-6-6-3.313 0-6 2.688-6 6a5.999 5.999 0 0 0 3.852 5.598l-2.559 13.82A19.89 19.89 0 0 0 24 44c1.625 0 3.195-.215 4.707-.578l-2.559-13.824A5.999 5.999 0 0 0 30 24Z" style="fill:#1a237e"/></svg>
